X: 1125
T: Roudledum
R:slip jig
S:
N:"1st Setting"
B:O'Neill's
Z:Transcribed by Michael Hogan
M:9/8
L:1/8
K:D
Dzd dcB czA | ded fed fga | bge afd cBA | BcB B {c/B/}A Bcd :|
|:BEE BzE FED | BEE BzE {e}dcd | BEE BzE FED | AGF FED FGA :|


